public/img/removal/remove-icon-caution-white.svg

<svg fill="none" height="14" viewBox="0 0 14 14" width="14" xmlns="http://www.w3.org/2000/svg"><path d="m13.6929 11.0119-4.95296-9.90604c-.16608-.332284-.42142-.611752-.7374-.807076s-.68012-.298784-1.0516-.298784-.73562.10346-1.0516.298784-.57132.474792-.7374.807076l-4.953 9.91004c-.1514428.3047-.2226119.6431-.20677222.9831.01583972.3399.11816422.6702.29729022.9596.179125.2893.429126.5282.726342.694.29722.1657.63182.2529.97214.2533h9.90496c.341.0001.6763-.0869.9742-.2528.2978-.1659.5484-.4052.7277-.6952.1794-.2899.2816-.6209.297-.9615.0154-.3407-.0565-.6795-.2089-.9845zm-7.74196-7.10604c0-.26521.10536-.51957.29289-.7071.18754-.18754.44189-.2929.70711-.2929s.51957.10536.70711.2929c.18753.18753.29289.44189.29289.7071v4c0 .26522-.10536.51957-.29289.70711-.18754.18754-.44189.29289-.70711.29289s-.51957-.10535-.70711-.29289c-.18753-.18754-.29289-.44189-.29289-.70711zm1 8.25004c-.24723 0-.4889-.0733-.69446-.2107s-.36578-.3326-.46039-.561-.11936-.4797-.07113-.7222.16728-.4652.3421-.64c.17481-.17484.39754-.29389.64002-.34212.24247-.04823.49381-.02347.72221.07113.22841.09461.42364.25479.56099.46039s.21066.4472.21066.6945c0 .3315-.1317.6494-.36612.8838-.23442.2345-.55236.3662-.88388.3662z" fill="#fff"/></svg>

<svg width="14" height="14" viewBox="0 0 14 14" fill="none" xmlns="http://www.w3.org/2000/svg">
<title>White caution symbol</title>
<path d="M13.6929 11.0119L8.73994 1.10586C8.57386 0.773576 8.31852 0.494108 8.00254 0.298784C7.68656 0.10346 7.32242 0 6.95094 0C6.57946 0 6.21532 0.10346 5.89934 0.298784C5.58336 0.494108 5.32802 0.773576 5.16194 1.10586L0.20894 11.0159C0.0574972 11.3206 -0.0136719 11.659 0.00216778 11.999C0.0180075 12.3389 0.120332 12.6692 0.299458 12.9586C0.478583 13.2479 0.728584 13.4868 1.0258 13.6526C1.32302 13.8183 1.65762 13.9055 1.99794 13.9059H11.9029C12.2439 13.906 12.5792 13.819 12.8771 13.6531C13.1749 13.4872 13.4255 13.2479 13.6048 12.9579C13.7842 12.668 13.8864 12.337 13.9018 11.9964C13.9172 11.6557 13.8453 11.3169 13.6929 11.0119V11.0119ZM5.95094 3.90586C5.95094 3.64065 6.0563 3.38629 6.24383 3.19876C6.43137 3.01122 6.68572 2.90586 6.95094 2.90586C7.21616 2.90586 7.47051 3.01122 7.65805 3.19876C7.84558 3.38629 7.95094 3.64065 7.95094 3.90586V7.90586C7.95094 8.17108 7.84558 8.42543 7.65805 8.61297C7.47051 8.80051 7.21616 8.90586 6.95094 8.90586C6.68572 8.90586 6.43137 8.80051 6.24383 8.61297C6.0563 8.42543 5.95094 8.17108 5.95094 7.90586V3.90586ZM6.95094 12.1559C6.70371 12.1559 6.46204 12.0826 6.25648 11.9452C6.05092 11.8078 5.8907 11.6126 5.79609 11.3842C5.70148 11.1558 5.67673 10.9045 5.72496 10.662C5.77319 10.4195 5.89224 10.1968 6.06706 10.022C6.24187 9.84716 6.4646 9.72811 6.70708 9.67988C6.94955 9.63165 7.20089 9.65641 7.42929 9.75101C7.6577 9.84562 7.85293 10.0058 7.99028 10.2114C8.12763 10.417 8.20094 10.6586 8.20094 10.9059C8.20094 11.2374 8.06924 11.5553 7.83482 11.7897C7.6004 12.0242 7.28246 12.1559 6.95094 12.1559V12.1559Z" fill="white"/>
</svg>
